assets/shopping-color/ShoppingColor3.svg

<svg xmlns="http://www.w3.org/2000/svg" data-name="Layer 3" viewBox="0 0 128 128"><path fill="#f8b72b" d="M96.142 94.826a7.008 7.008 0 01-7.078 7.632H38.935a7.007 7.007 0 01-7.078-7.632l3.443-45.58a8.408 8.408 0 018.229-7.632h40.943a8.408 8.408 0 018.228 7.632z"/><path fill="#f7c869" d="M38.554 94.826L42 49.246a8.407 8.407 0 018.229-7.632h-6.7a8.408 8.408 0 00-8.229 7.632l-3.441 45.58a7.007 7.007 0 007.078 7.632h6.7a7.008 7.008 0 01-7.083-7.632z"/><path fill="#231f20" d="M97.668 94.711l-3.441-45.58a9.948 9.948 0 00-9.755-9.047h-2.947a17.591 17.591 0 00-35.05 0h-2.948a9.948 9.948 0 00-9.755 9.047l-3.441 45.58a8.537 8.537 0 008.6 9.277h50.133a8.537 8.537 0 008.6-9.277zM64 27.073a14.561 14.561 0 0114.459 13.011H49.541A14.561 14.561 0 0164 27.073zM36.825 49.361a6.836 6.836 0 016.7-6.216H46.4v4.764a3.955 3.955 0 103.061 0v-4.764h29.08v4.765a3.955 3.955 0 103.061 0v-4.765h2.87a6.836 6.836 0 016.7 6.216L94.25 90.1h-60.5zm56.353 49.814a5.535 5.535 0 01-4.114 1.752H38.935a5.478 5.478 0 01-5.552-5.986l.134-1.78h60.965l.134 1.78a5.533 5.533 0 01-1.438 4.234z"/></svg>

<svg id="Layer_3" data-name="Layer 3" xmlns="http://www.w3.org/2000/svg" viewBox="0 0 128 128"><title>Artboard 99</title><path d="M96.142,94.826a7.008,7.008,0,0,1-7.078,7.632H38.935a7.007,7.007,0,0,1-7.078-7.632L35.3,49.246a8.408,8.408,0,0,1,8.229-7.632H84.472A8.408,8.408,0,0,1,92.7,49.246Z" style="fill:#f8b72b"/><path d="M38.554,94.826,42,49.246a8.407,8.407,0,0,1,8.229-7.632h-6.7A8.408,8.408,0,0,0,35.3,49.246l-3.441,45.58a7.007,7.007,0,0,0,7.078,7.632h6.7A7.008,7.008,0,0,1,38.554,94.826Z" style="fill:#f7c869"/><path d="M97.668,94.711l-3.441-45.58a9.948,9.948,0,0,0-9.755-9.047H81.525a17.591,17.591,0,0,0-35.05,0H43.527a9.948,9.948,0,0,0-9.755,9.047l-3.441,45.58a8.537,8.537,0,0,0,8.6,9.277H89.064a8.537,8.537,0,0,0,8.6-9.277ZM64,27.073A14.561,14.561,0,0,1,78.459,40.084H49.541A14.561,14.561,0,0,1,64,27.073ZM36.825,49.361a6.836,6.836,0,0,1,6.7-6.216H46.4v4.764a3.955,3.955,0,1,0,3.061,0V43.145H78.541V47.91a3.955,3.955,0,1,0,3.061,0V43.145h2.87a6.836,6.836,0,0,1,6.7,6.216L94.25,90.1h-60.5ZM93.178,99.175a5.535,5.535,0,0,1-4.114,1.752H38.935a5.478,5.478,0,0,1-5.552-5.986l.134-1.78H94.482l.134,1.78A5.533,5.533,0,0,1,93.178,99.175Z" style="fill:#231f20"/></svg>
